X:048
T:Miss Brown’s Reel TS.048
T:Scotch Mary,aka TS.048
T:Heart of the Roll,The,aka TS.048
M:C|
L:1/8
Q:1/2=90
S:Thomas Sands’ MS,1810,Lincolnshire
R:reel
O:England;Lincolnshire
Z:vmp.Ruairidh Greig, 2011
K:F
cB|:AFcF dFcF|AFcFB2(3dcB|AFcF dFcF|BGGAB2″as writ”(d/c/)B:|
|:f2a/g/f/e/ fcAc|f2a/g/f/e/ fage|f2a/g/f/e/ fcAc|BGGAB2 (d/c/)B:|]

